X: 9193
T: Daly's Mill
R: polka
M: 2/4
K: Amajor
|:Ac ef|ec dB|Ac ef|e2 a2|
Ac ef|ec dB|AF FE|1 A2 AF:|2 A2 Ae||
|:fe cB|AF FE|A>B Ac|e2 ed/e/|
fe cB|AF FE|A2 AF|1 A2 Ae:|2 A2 AF||

